X: 185
T: October's Bright, Blue Weather.
C: music: Gruenberger.
C: words: Helen Hunt Jackson.
P: Used by Per. of Roberts Bros.
Q: "Allegretto."
B: "The Everyday Song Book", 1927
F: http://www.library.pitt.edu/happybirthday/pdf/The_Everyday_Song_Book.pdf
Z: 2017 John Chambers <jc:trillian.mit.edu>
M: 4/4
L: 1/8
K: E
% - - - - - - - - - - - - - - - - - - - - - - - - - - - - -
[B2G2] | [B3G3] [cA] [B2G2] [A2F2] | [G2E2] ([GE][FD]) [G2E2] [G2E2] | [F2D2] [G2E2] [A2F2] [F2D2] |
w: 1.~O suns and skies and clouds of* June,  And flow'rs of June, to-
w: 2.~When all the love-ly way-side* things  Their white-winged seeds are
%
[G2E2] [B2G2] z2 [B2G2] | [B3G3] [cA] [B2G2] [A2F2] | [G2E2] ([GE][FD]) [G2E2] [G2E2] |
w: ge-ther   Ye can-not ri-val for one* hour            Oc-
w: sow-ing,  And in the fields, still green and* fair,  Late
%
[F2D2] [G2E2] [A2F2] [F2D2] | [G2E2] [E2E2] z2 [F2D2] | [F3D3] [GE] [F2D2] [E2C2] |
w: to-ber's bright, blue wea-ther!  When on the ground red
w: aft-er-maths are grow-ing:       O suns and skies and
%
[D2B,2] [E2C2] [F2D2] [F2D2] | [G2E2] [c2E2] [B2D2] [^A2E2] | [B2D2] [d2F2] z2 [F2D2] |
w: ap-ples lie      In piles, like jew-els shin-ing,   And
w: flow'rs of June! Count all your boasts to-ge-ther;  Love
%
[F3D3] [GE] [F2D2] [E2C2] | [D2B,2] [E2C2] [F2D2] [F2D2] | [G2E2] [c2E2] [B2D2] [^A2E2] | [c2E2] [B2D2] z2 |
w: red-der still on old stone walls  Are leaves of wood-bine twin-ing.
w: lov-eth best of all the year      Oc-to-ber's bright, blue weath-er!
%
"^Chorus"\
[B2G2] | [B3G3] "^a tempo."[cA] [B2G2] [A2F2] | [G2E2] ([GE][FD]) [G2E2] [G2E2] | [F2D2] [G2E2] [A2F2] [F2D2] | [G2E2] [B2G2] z2 |
w: O suns and skies and clouds of* June, And flow'rs of June, to-geth-er
%
[B2G2] | [B3G3] [cA] [B2G2] [A2F2] | [G2E2] ([GE][AF]) [B2G2] [B2G2] | [c2A2] [f2A2] [e2G2] [d2F2] | [f2A2] [e2G2] z2 |]
w: Ye can-not ri-val for one* hour Oc-to-ber's bright, blue weath-er!
% - - - - - - - - - - - - - - - - - - - - - - - - - - - - -
